brandFactory_export/3.Masa/Diente muela _3Masa.svg

<?xml version="1.0" encoding="UTF-8"?>
<svg width="24px" height="24px" viewBox="0 0 24 24" version="1.1" xmlns="http://www.w3.org/2000/svg" xmlns:xlink="http://www.w3.org/1999/xlink">
    <title>3.Masa/Diente muela _3Masa</title>
    <g id="Symbols" stroke="none" stroke-width="1" fill="none" fill-rule="evenodd">
        <g id="3.Masa/Diente-muela-_3Masa" fill="#5CB615" fill-rule="nonzero">
            <path d="M16.1176471,23.6571429 L15.9798319,23.6571429 C15.7915966,23.6571429 15.6504202,23.610084 15.5630252,23.5798319 C15.1966387,23.4352941 14.9042017,23.210084 14.6554622,22.8941176 C14.4168067,22.6016807 14.1478992,22.1344538 14.0739496,21.9966387 L13.9831933,21.7983193 C13.8957983,21.6033613 13.7815126,21.3042017 13.6033613,20.8336134 C13.287395,20 12.3764706,17.6033613 11.8084034,16.9781513 C11.2403361,17.6033613 10.3327731,20.0033613 10.0168067,20.8336134 C9.84201681,21.297479 9.72773109,21.5932773 9.64033613,21.7882353 L9.6302521,21.8352941 L9.54285714,21.9966387 C9.46890756,22.1344538 9.2,22.6016807 8.95462185,22.9008403 C8.71596639,23.2067227 8.42352941,23.4319328 8.09411765,23.5630252 C7.9697479,23.6067227 7.82857143,23.6537815 7.65042017,23.6537815 L7.51596639,23.6537815 C7.32773109,23.6537815 7.18655462,23.6067227 7.09915966,23.5764706 C6.73277311,23.4319328 6.44033613,23.2067227 6.19495798,22.8907563 C6.00336134,22.6554622 5.80504202,22.3193277 5.68739496,22.1176471 L5.63361345,22.0268908 C4.89411765,20.6890756 4.47394958,19.7680672 3.94621849,18.3428571 C3.61680672,17.4655462 3.33445378,16.5680672 3.08907563,15.5966387 C3.03865546,15.405042 2.97815126,15.1563025 2.91092437,14.887395 L2.87731092,14.7495798 C1.64705882,12.6084034 0.776470588,10.4840336 0.285714286,8.43697479 C-0.413445378,5.5092437 0.191596639,3.05210084 1.98991597,1.52605042 C3.01848739,0.642016807 4.41680672,0.114285714 5.92605042,0.0369747899 C7.4789916,-0.0470588235 9.09243697,0.339495798 10.5747899,1.16302521 C10.9747899,1.38823529 11.3781513,1.61680672 11.8117647,1.87226891 C12.2588235,1.61344538 12.6588235,1.38487395 13.0487395,1.16638655 C14.5310924,0.342857143 16.1478992,-0.0470588235 17.7042017,0.0369747899 C19.210084,0.114285714 20.6084034,0.642016807 21.6403361,1.52941176 C23.4352941,3.05546218 24.0403361,5.5092437 23.3411765,8.43697479 C22.8504202,10.4840336 21.9764706,12.605042 20.7495798,14.7495798 L20.7193277,14.8672269 C20.6521008,15.1462185 20.5915966,15.4016807 20.5344538,15.6067227 C20.292437,16.5613445 20.0134454,17.4588235 19.6773109,18.3462185 C19.1529412,19.7647059 18.7327731,20.6857143 18.010084,21.9932773 L17.9394958,22.1142857 C17.8218487,22.3159664 17.6235294,22.6487395 17.4252101,22.8941176 C17.1865546,23.2 16.8941176,23.4252101 16.5647059,23.5563025 C16.4403361,23.610084 16.2957983,23.6571429 16.1176471,23.6571429 Z" id="Path"></path>
        </g>
    </g>
</svg>

<svg width="24" height="24" viewBox="0 0 24 24" xmlns="http://www.w3.org/2000/svg"><path d="M16.118 23.657h-.138a1.22 1.22 0 01-.417-.077 2.115 2.115 0 01-.908-.686 6.884 6.884 0 01-.581-.897l-.09-.199a20.725 20.725 0 01-.38-.964c-.317-.834-1.228-3.23-1.796-3.856-.568.625-1.475 3.025-1.791 3.856-.175.463-.29.76-.377.954l-.01.047-.087.162a6.797 6.797 0 01-.588.904 2.062 2.062 0 01-.86.662 1.28 1.28 0 01-.445.09h-.134a1.22 1.22 0 01-.417-.077 2.086 2.086 0 01-.904-.685 6.562 6.562 0 01-.508-.773l-.053-.091a23.951 23.951 0 01-1.688-3.684 25.496 25.496 0 01-.857-2.746c-.05-.192-.11-.44-.178-.71l-.034-.137c-1.23-2.142-2.1-4.266-2.591-6.313-.7-2.928-.094-5.385 1.704-6.91C3.018.641 4.417.113 5.926.036c1.553-.084 3.166.302 4.649 1.126.4.225.803.454 1.237.71.447-.26.847-.488 1.237-.707C14.53.343 16.148-.047 17.704.037c1.506.077 2.904.605 3.936 1.492 1.795 1.526 2.4 3.98 1.701 6.908-.49 2.047-1.365 4.168-2.591 6.313l-.03.117c-.068.28-.128.535-.186.74a25.01 25.01 0 01-.857 2.74 23.71 23.71 0 01-1.667 3.646l-.07.121a6.7 6.7 0 01-.515.78 2.062 2.062 0 01-.86.662c-.125.054-.27.101-.447.101z" fill="#5CB615" fill-rule="nonzero"/></svg>
